X: 15691
T: Golden Eagle, The
R: hornpipe
M: 4/4
K: Gmajor
BA|GBDG BDGB|dG (3Bcd g2ag|fedB cAFA|GBAG FD (3DEF|
GBDG BDGB|dG (3Bcd g^ga=g|fedB cAFA|(3GAG F>A G2:|
b^a|b2 ba bagf|e^de>f g2^g2|a2 ab agfg|(3fed (3^cde d2 ab|
c'afd (3Bcd ef|gdad b2 ag|fedB cAFA|(3GAG F>A G2:|

